!!!!SEGMENT: pl-sa--259-a-vii-19--001_zajaczkowski-roman--veni-creator-spiritus-symfonia.krn
!!!cenid: 17xx:360
!!!COM: Zajączkowski, Roman
!!!COM-rismid: pe41012326
!!!CDT: 1661-1710
!!!CNT: Polish
!!!OPR: Veni Creator Spiritus
!!!OTL: Symfonia
!!!OMV: 001
!!!PDT: 1706
!!!AGN: Sacred
!!!SMS-siglum: PL-SA
!!!SMS-shelfmark: 259/A VII 19
!!!SMS-shelfwork: 001-001 M
!!!NIFC-rismid: 1001039862
!!!URL-scan: http://bc.bdsandomierz.pl/dlibra/publication/1772/edition/1740/content
!!!ONB-nifc: UWAGA: części: Symfonia, Veni Creator
!!!AIN: 1 alto 2 empty 1 tenor 1 viola 2 violn 2 vox
!!!key:
**kern	**kern	**kern	**kern	**kern	**kern	**kern	**kern	**kern	**kernyy	**kernyy
*part11	*part10	*part9	*part8	*part7	*part6	*part5	*part4	*part3	*part2	*part1
*staff11	*staff10	*staff9	*staff8	*staff7	*staff6	*staff5	*staff4	*staff3	*staff2	*staff1
*Iempty	*Iviola	*Ivioln	*Ivioln	*Iempty	*Itenor	*Ialto	*Ivox	*Ivox	*	*
*	*I"Viola di Gamba	*I"Violino 2.	*I"Violino I	*I"Baſso.	*I"Tenore.	*I"Alto.	*I"Canto 2.	*I"Canto I.	*I"Clarino 2.	*I"Clarino I.
*	*I'vla da gamba	*I'vl 2	*I'vl 1	*I'B	*I'T	*I'A	*I'S 2	*I'S 1	*I'clno 2	*I'clno 1
*group4	*group3	*group3	*group3	*group2	*group2	*group2	*group2	*group2	*group1	*group1
*clefF4	*clefF4	*clefG2	*clefG2	*clefF4	*clefC4	*clefC3	*clefC1	*clefC1	*clefG2	*clefG2
*k[]	*k[]	*k[]	*k[]	*k[]	*k[]	*k[]	*k[]	*k[]	*k[]	*k[]
*C:	*C:	*C:	*C:	*C:	*C:	*C:	*C:	*C:	*C:	*C:
*M2/2	*M2/2	*M2/2	*M2/2	*M2/2	*M2/2	*M2/2	*M2/2	*M2/2	*M2/2	*M2/2
*met(c|)	*met(c|)	*met(c|)	*met(c|)	*met(c|)	*met(c|)	*met(c|)	*met(c|)	*met(c|)	*met(c|)	*met(c|)
=1	=1	=1	=1	=1	=1	=1	=1	=1	=1	=1
*	*^	*	*	*	*	*	*	*	*	*
!LO:TX:b:t=Symphonia.	!LO:TX:a:t=P:problem= dolne główki zapisane bez lasek, dotyczy każdego przypadku z ukrytymi laskami i chorągiewkami	!	!	!	!	!	!	!	!	!LO:TX:b:t=Sÿmphonia	!LO:TX:a:t=lente
!LO:TX:a:t=Lente.	!LO:TX:b:t=Symphonia	!	!LO:TX:b:t=Symphonia	!LO:TX:b:t=Symphonia	!LO:TX:a:t=Symphonia \nTacet	!LO:TX:a:t=Symphonia \nTacet	!LO:TX:a:t=Symphonia \nTacet	!LO:TX:a:t=Symphonia \nTacet.	!LO:TX:a:t=Symphonia \nTacet	!LO:TX:a:t=Lente.	!LO:TX:b:t=Symphonia
4C/	4E/ 4c	4EE\ 4GG 4C	0r	0r	1ryy	1ryy	1ryy	1ryy	1ryy	4r	8r
.	.	.	.	.	.	.	.	.	.	.	16cc\LL
.	.	.	.	.	.	.	.	.	.	.	16g\JJ
4r	4r	4ryy	.	.	.	.	.	.	.	8r	8ee\L
.	.	.	.	.	.	.	.	.	.	16cc\LL	16ee\L
.	.	.	.	.	.	.	.	.	.	16g\JJ	16cc\JJ
!LO:TX:b:t=Tuby	!	!	!	!	!	!	!	!	!	!	!
4C/	4C/	2ryy	.	.	.	.	.	.	.	16ee\LL	16gg\LL
.	.	.	.	.	.	.	.	.	.	16ff\	16aa\
.	.	.	.	.	.	.	.	.	.	16ee\	16gg\
.	.	.	.	.	.	.	.	.	.	16dd\JJ	16ff\JJ
!	!	!	!	!	!	!	!	!	!	!	!LO:SIC:v=znak + pod klamrą łukową
8C/L	8C/L	.	.	.	.	.	.	.	.	8.cc\L	8.ee\L
8GG/J	8GG/J	.	.	.	.	.	.	.	.	.	.
.	.	.	.	.	.	.	.	.	.	16g\Jk	16dd\Jk
*	*clefC4	*	*	*	*	*	*	*	*	*	*
=2	=2	=2	=2	=2	=2	=2	=2	=2	=2	=2	=2
8C/L	8e/L	8E\ 8G 8c	.	.	1ryy	1ryy	1ryy	1ryy	1ryy	8cc\L	16ee\LL
.	.	.	.	.	.	.	.	.	.	.	16dd\
8BB/	8d/	8B\L	.	.	.	.	.	.	.	8g\J	16cc\
.	.	.	.	.	.	.	.	.	.	.	16dd\
!LO:TX:a:t=56	!	!	!	!	!	!	!	!	!	!	!
8AA/	8c/	8A\	.	.	.	.	.	.	.	16cc\LL	16ee\
.	.	.	.	.	.	.	.	.	.	16dd\J	16ff\J
!LO:TX:a:t=89	!	!	!	!	!	!	!	!	!	!	!
8GG/J	8B/J	8G\J	.	.	.	.	.	.	.	8ee\J	8gg\J
*	*clefF4	*	*	*	*	*	*	*	*	*	*
!LO:TX:a:t=#	!	!	!	!	!	!	!	!	!	!	!LO:TX:a:t=#
4D/	16D/LL	2ryy	.	.	.	.	.	.	.	4dd\	8ff#y\L
.	16C/	.	.	.	.	.	.	.	.	.	.
.	16BB/	.	.	.	.	.	.	.	.	.	16ee\L
.	16AA/JJ	.	.	.	.	.	.	.	.	.	16ff#\JJ
4GG/	4GG/	.	.	.	.	.	.	.	.	4dd\	4gg\
*	*v	*v	*	*	*	*	*	*	*	*	*
=3	=3	=3	=3	=3	=3	=3	=3	=3	=3	=3
4GG/	8r	16b/LL	16dd\LL	1ryy	1ryy	1ryy	1ryy	1ryy	00r	00r
.	.	16g/	16b\	.	.	.	.	.	.	.
.	16G\LL	16a/	16cc\	.	.	.	.	.	.	.
.	16G\JJ	16b/JJ	16dd\JJ	.	.	.	.	.	.	.
!LO:TX:b:t=Violini	!	!	!	!	!	!	!	!	!	!
8C/	8c\	16cc\LL	16ee\LL	.	.	.	.	.	.	.
.	.	16dd\	16ff\	.	.	.	.	.	.	.
8r	8r	16cc\	16ee\	.	.	.	.	.	.	.
.	.	16b\JJ	16dd\JJ	.	.	.	.	.	.	.
4AA/	8r	8a/L	8cc\L	.	.	.	.	.	.	.
.	16A\LL	8a/J	8cc\J	.	.	.	.	.	.	.
.	16A\JJ	.	.	.	.	.	.	.	.	.
8GG/	8G\	16b\LL	16dd\LL	.	.	.	.	.	.	.
.	.	16cc\	16ee\	.	.	.	.	.	.	.
8r	8r	16b\	16dd\	.	.	.	.	.	.	.
.	.	16a\JJ	16cc\JJ	.	.	.	.	.	.	.
=4	=4	=4	=4	=4	=4	=4	=4	=4	=4	=4
8GG/L	16G\LL	8g/L	16b/LL	1ryy	1ryy	1ryy	1ryy	1ryy	.	.
.	16F\	.	16a/	.	.	.	.	.	.	.
!LO:TX:a:t=#6	!	!LO:TX:b:t=#	!	!	!	!	!	!	!	!
8AA/	16G\	8f#y/J	16g/	.	.	.	.	.	.	.
.	16A\JJ	.	16a/JJ	.	.	.	.	.	.	.
8BB/	4BB/	16g/LL	16b\LL	.	.	.	.	.	.	.
.	.	16b/	16dd\	.	.	.	.	.	.	.
8C/J	.	16a/	16cc\	.	.	.	.	.	.	.
.	.	16g/JJ	16b\JJ	.	.	.	.	.	.	.
!LO:TX:a:t=#	!	!LO:TX:b:t=#	!LO:SIC:v=znak + pod klamrą łukową	!	!	!	!	!	!	!
4D/	4C/	8f#y/L	4a/	.	.	.	.	.	.	.
.	.	16e/L	.	.	.	.	.	.	.	.
.	.	16f#/JJ	.	.	.	.	.	.	.	.
4GG/	16D\LL	4g/	4g/	.	.	.	.	.	.	.
.	16E\	.	.	.	.	.	.	.	.	.
!	!LO:TX:a:t=#	!	!	!	!	!	!	!	!	!
.	16F#y\	.	.	.	.	.	.	.	.	.
.	16D\JJ	.	.	.	.	.	.	.	.	.
=5	=5	=5	=5	=5	=5	=5	=5	=5	=5	=5
!LO:TX:a:t=5\n3	!LO:TX:a:t=P:problem= mixed beam	!	!	!	!	!	!	!	!	!
4G\	16G\LL	8b\L	8dd\L	1ryy	1ryy	1ryy	1ryy	1ryy	.	.
.	16GG/	.	.	.	.	.	.	.	.	.
.	16BB/	16b\L	16dd\L	.	.	.	.	.	.	.
.	16GG/JJ	16b\JJ	16dd\JJ	.	.	.	.	.	.	.
!	!LO:LB:g=original	!	!	!	!	!	!	!	!	!
8c\L	8c\L	8ee\L	8ee\L	.	.	.	.	.	.	.
!LO:TX:a:t=5	!	!	!	!	!	!	!	!	!	!
8B\J	16B\L	8dd\J	8ff\J	.	.	.	.	.	.	.
.	16A\JJ	.	.	.	.	.	.	.	.	.
8.G\L	8G\L	16ee\LL	16gg\LL	.	.	.	.	.	.	.
.	.	16dd\	16ff\	.	.	.	.	.	.	.
.	8F#X\J	16ee\	16gg\	.	.	.	.	.	.	.
!LO:TX:a:t=6	!	!	!	!	!	!	!	!	!	!
16F#X\Jk	.	16ff\JJ	16aa\JJ	.	.	.	.	.	.	.
4G\	8G\L	8gg\L	16bb\LL	.	.	.	.	.	.	.
.	.	.	16ccc\J	.	.	.	.	.	.	.
.	8GG/J	16aa\L	8ddd\J	.	.	.	.	.	.	.
.	.	16bb\JJ	.	.	.	.	.	.	.	.
!	!	!LO:LB:g=original	!	!	!	!	!	!	!	!
=6	=6	=6	=6	=6	=6	=6	=6	=6	=6	=6
8C/L	16C/LL	8ccc\L	8eee\L	1ryy	1ryy	1ryy	1ryy	1ryy	.	.
.	16BB/	.	.	.	.	.	.	.	.	.
8GG/	16AA/	8bb\	8ddd\J	.	.	.	.	.	.	.
.	16GG/JJ	.	.	.	.	.	.	.	.	.
!	!	!	!LO:LB:g=original	!	!	!	!	!	!	!
8AA/	8AA/L	8aa\	8ccc\L	.	.	.	.	.	.	.
16BB/L	16BB/L	8gg\J	8bb\J	.	.	.	.	.	.	.
16C/JJ	16C/JJ	.	.	.	.	.	.	.	.	.
!LO:TX:a:t=#	!LO:TX:a:t=P:problem= mixed beam	!	!	!	!	!	!	!	!	!
4D/	8D\L	4ff#X\	4aa\	.	.	.	.	.	.	.
.	8DD/J	.	.	.	.	.	.	.	.	.
4GG/	4GG/	4gg\	4gg\	.	.	.	.	.	.	.
=7	=7	=7	=7	=7	=7	=7	=7	=7	=7	=7
!LO:TX:b:t=Clarini	!	!	!	!	!	!	!	!	!	!
4C/	8r	0r	1r	1ryy	1ryy	1ryy	1ryy	1ryy	16r	16r
.	.	.	.	.	.	.	.	.	16ee\LL	16gg\LL
.	16C/LL	.	.	.	.	.	.	.	16ee\	16gg\
.	16C/JJ	.	.	.	.	.	.	.	16ee\JJ	16gg\JJ
!	!LO:TX:a:t=P:problem= mixed beam	!	!	!	!	!	!	!	!LO:SIC:v=znak + pod klamrą łukową	!LO:SIC:v=znak + pod klamrą łukową
8F\	8F\L	.	.	.	.	.	.	.	8.ff\L	8.aa\L
8r	8FF/J	.	.	.	.	.	.	.	.	.
.	.	.	.	.	.	.	.	.	16ee\Jk	16gg\Jk
4D/	8r	.	.	.	.	.	.	.	16dd\LL	16ff\LL
.	.	.	.	.	.	.	.	.	16dd\	16ff\
.	16D/LL	.	.	.	.	.	.	.	16dd\	16ff\
.	16D/JJ	.	.	.	.	.	.	.	16dd\JJ	16ff\JJ
!	!LO:TX:a:t=P:problem= mixed beam	!	!	!	!	!	!	!	!	!
8C/	8c\L	.	.	.	.	.	.	.	16ee\LL	16gg\LL
.	.	.	.	.	.	.	.	.	16ff\	16aa\
8r	8C/J	.	.	.	.	.	.	.	16ee\	16gg\
.	.	.	.	.	.	.	.	.	16dd\JJ	16ff\JJ
!	!	!	!	!	!	!	!	!	!	!LO:LB:g=original
=8	=8	=8	=8	=8	=8	=8	=8	=8	=8	=8
4C/	16C/LL	.	1r	1ryy	1ryy	1ryy	1ryy	1ryy	16cc\LL	16ee\LL
.	16BB/	.	.	.	.	.	.	.	16g\	16dd\
.	16C/	.	.	.	.	.	.	.	16e\	16cc\
.	16D/JJ	.	.	.	.	.	.	.	16g\JJ	16dd\JJ
!LO:TX:a:t=P:problem= mixed beam	!	!	!	!	!	!	!	!	!	!
8E\L	16E\LL	.	.	.	.	.	.	.	16cc\LL	16ee\LL
.	16D\	.	.	.	.	.	.	.	16ee\	16gg\
8F\	16E\	.	.	.	.	.	.	.	16dd\	16ff\
.	16F\JJ	.	.	.	.	.	.	.	16cc\JJ	16ee\JJ
!	!	!	!	!	!	!	!	!	!LO:LB:g=original	!
8G\	16G\LL	.	.	.	.	.	.	.	8g/L	16dd\LL
.	16F\	.	.	.	.	.	.	.	.	16cc\
8GG/J	16E\	.	.	.	.	.	.	.	16e/L	16dd\
.	16D\JJ	.	.	.	.	.	.	.	16g/JJ	16ee\JJ
4C/	4C/	.	.	.	.	.	.	.	4e/	4cc\
!LO:LB:g=original	!	!	!	!	!	!	!	!	!	!
=9	=9	=9	=9	=9	=9	=9	=9	=9	=9	=9
4C/	8r	8r	8r	1ryy	1ryy	1ryy	1ryy	1ryy	16r	16r
.	.	.	.	.	.	.	.	.	16ee\LL	16gg\LL
.	8C/	8ee\	8gg\	.	.	.	.	.	16ee\	16gg\
.	.	.	.	.	.	.	.	.	16ee\JJ	16gg\JJ
8F\	4F\	16ff\LL	16aa\LL	.	.	.	.	.	16ff\LL	16aa\LL
.	.	16ee\	16gg\	.	.	.	.	.	16ee\	16gg\
8r	.	16ff\	16aa\	.	.	.	.	.	16ff\	16aa\
.	.	16ee\JJ	16gg\JJ	.	.	.	.	.	16ee\JJ	16gg\JJ
4D/	8r	8r	8r	.	.	.	.	.	16r	16r
.	.	.	.	.	.	.	.	.	16dd\LL	16ff\LL
.	16D/LL	8dd\	8ff\	.	.	.	.	.	16dd\	16ff\
.	16D/JJ	.	.	.	.	.	.	.	16dd\JJ	16ff\JJ
8C/	4C/	16ee\LL	16gg\LL	.	.	.	.	.	16ee\LL	16gg\LL
.	.	16dd\	16ff\	.	.	.	.	.	16dd\	16ff\
8r	.	16ee\	16gg\	.	.	.	.	.	16ee\	16gg\
.	.	16dd\JJ	16ff\JJ	.	.	.	.	.	16dd\JJ	16ff\JJ
*	*clefC4	*	*	*	*	*	*	*	*	*
!	!LO:LB:g=original	!	!	!	!	!	!	!	!	!
=10	=10	=10	=10	=10	=10	=10	=10	=10	=10	=10
*	*^	*	*	*	*	*	*	*	*	*
4C/	16c\LL	4r	8cc\L	8ee\L	1ryy	1ryy	1ryy	1ryy	1ryy	16cc\LL	16ee\LL
.	16B\	.	.	.	.	.	.	.	.	16dd\	16ff\
.	16A\	.	8cc\	8gg\	.	.	.	.	.	16cc\	16ee\
.	16G\JJ	.	.	.	.	.	.	.	.	16dd\JJ	16ff\JJ
4C/	16e/LL	16C\ 16E 16c	8ee\	16aa\L	.	.	.	.	.	16ee\LL	16gg\LL
.	16f/	16d\LL	.	16bb\J	.	.	.	.	.	16ee\	16gg\
.	16g/	16e\	8ff\J	8ccc\J	.	.	.	.	.	16dd\	16ff\
!	!	!LO:TX:a:t=P:problem=16c\right	!	!	!	!	!	!	!	!	!
.	16c/JJ	16c\JJ	.	.	.	.	.	.	.	16cc\JJ	16ee\JJ
*	*clefF4	*	*	*	*	*	*	*	*	*	*
!	!	!	!	!	!	!	!	!	!	!LO:SIC:v=znak + pod klamrą łukową	!LO:SIC:v=znak + pod klamrą łukową
4GG/	16G\LL	2ryy	16gg\LL	4bb\	.	.	.	.	.	4g/	4dd\
.	16E\	.	16aa\	.	.	.	.	.	.	.	.
.	16F\	.	16gg\	.	.	.	.	.	.	.	.
.	16G\JJ	.	16ff\JJ	.	.	.	.	.	.	.	.
4C/	4C/	.	4ee\	4ccc\	.	.	.	.	.	4e/	4cc\
*	*v	*v	*	*	*	*	*	*	*	*	*
=11	=11	=11	=11	=11	=11	=11	=11	=11	=11	=11
!LO:TX:a:t=P:problem= dwa nadliczbowe takty w clarini	!	!	!LO:TX:a:t=P:problem= dwa nadliczbowe takty w clarini	!	!	!	!	!	!LO:TX:a:t=P:problem=takty 11-12  zapisane repetycją	!LO:TX:a:t=P:problem=takty 11-12 zapisane repetycją
1ryy	1ryy	1ryy	1ryy	1ryy	1ryy	1ryy	1ryy	1ryy	16r	16r
.	.	.	.	.	.	.	.	.	16ee\LL	16gg\LL
.	.	.	.	.	.	.	.	.	16ee\	16gg\
.	.	.	.	.	.	.	.	.	16ee\JJ	16gg\JJ
.	.	.	.	.	.	.	.	.	16ff\LL	16aa\LL
.	.	.	.	.	.	.	.	.	16ee\	16gg\
.	.	.	.	.	.	.	.	.	16ff\	16aa\
.	.	.	.	.	.	.	.	.	16ee\JJ	16gg\JJ
.	.	.	.	.	.	.	.	.	16r	16r
.	.	.	.	.	.	.	.	.	16dd\LL	16ff\LL
.	.	.	.	.	.	.	.	.	16dd\	16ff\
.	.	.	.	.	.	.	.	.	16dd\JJ	16ff\JJ
.	.	.	.	.	.	.	.	.	16ee\LL	16gg\LL
.	.	.	.	.	.	.	.	.	16dd\	16ff\
.	.	.	.	.	.	.	.	.	16ee\	16gg\
.	.	.	.	.	.	.	.	.	16dd\JJ	16ff\JJ
=12	=12	=12	=12	=12	=12	=12	=12	=12	=12	=12
1ryy	1ryy	1ryy	1ryy	1ryy	1ryy	1ryy	1ryy	1ryy	16cc\LL	16ee\LL
.	.	.	.	.	.	.	.	.	16dd\	16ff\
.	.	.	.	.	.	.	.	.	16cc\	16ee\
.	.	.	.	.	.	.	.	.	16dd\JJ	16ff\JJ
.	.	.	.	.	.	.	.	.	16ee\LL	16gg\LL
.	.	.	.	.	.	.	.	.	16ee\	16gg\
.	.	.	.	.	.	.	.	.	16dd\	16ff\
.	.	.	.	.	.	.	.	.	16cc\JJ	16ee\JJ
!	!	!	!	!	!	!	!	!	!LO:SIC:v=znak + pod klamrą łukową	!LO:SIC:v=znak + pod klamrą łukową
.	.	.	.	.	.	.	.	.	4g/	4dd\
.	.	.	.	.	.	.	.	.	4e/	4cc\
=||	=||	=||	=||	=||	=||	=||	=||	=||	=||	=||
*-	*-	*-	*-	*-	*-	*-	*-	*-	*-	*-
!!!system-decoration: [(g1)][(g2)][(g3)][(g4)]
!!!ENC: Anna Matuszewska
!!!END: 2020-10-27
!!!ENC: Kamil Watkowski
!!!END: 2020-04-23
